X:0887
T:Baltioura,
C:Irish.
M:6/8
L:1/8
Q:3/8=120
I: :: :|
Z:Jack Campin * www.campin.me.uk * 2009
K:G
Bdg Bdg|dBG Bdg|Bdg  f2A|Bdg Bdg|dBG ABA| cAg =f2A:|
BBB ccc|dBG BBB|ccc =f2A|BBB ccc|dBG cBA|=fed  e2A:|
<end>
<start>
